X: 1
T: Last Night's Fun
Z: Jeremy
S: https://thesession.org/tunes/63#setting63
R: reel
M: 4/4
L: 1/8
K: Dmaj
|:ADFD A2AB|ADFD EFGB|ADFD A2 Bd|e2fe dBAB:|
df (3fff af (3fff|defd e2fe|df (3fff af (3fff|egfe dBAB|
dff2 aff2|defd e3f|a2bf afeg|f2ed BcdB|

